X:215
T:Splittin' Firewood
R:Jig
C:Bruce Osborne  --  Sept.13 1997
M:6/8
L:1/8
Z:abc by Bruce Osborne - bosborne@kos.net
K:A
A|CB,C A,CE|Acf ecA|EGB dcB|Acf ecA|!
CB,C A,CE|Acf e (3fga|gfe dcB|A4-A:|!
|:A|CB,C ECE|Acf ecA|EGB gbg|aec cBA|!
CB,C ECE|Acf e(3fga|gfe dcB|A4-A:|!
